icon-themes/sifr_svg/cmd/lc_group.svg

<svg viewBox="0 0 24 24" xmlns="http://www.w3.org/2000/svg"><g fill="#555753"><path d="m14 1v6h7v-6zm2 2h3v2h-3zm-11 4v4h-4v2h4v4h2v-4h4v-2h-4v-4zm9 2v6h7v-6zm2 2h3v2h-3zm-2 6v6h7v-6zm2 2h3v2h-3z"/><path d="m5 1v2 2h2v-2h5v-2zm0 18v4h2 5v-2h-5v-2z" opacity=".35"/></g></svg>

<svg xmlns="http://www.w3.org/2000/svg" viewBox="0 0 24 24">
  <path
     style="fill:#555753"
     d="M 14 1 L 14 7 L 21 7 L 21 1 L 14 1 z M 16 3 L 19 3 L 19 5 L 16 5 L 16 3 z M 5 7 L 5 11 L 1 11 L 1 13 L 5 13 L 5 17 L 7 17 L 7 13 L 11 13 L 11 11 L 7 11 L 7 7 L 5 7 z M 14 9 L 14 15 L 21 15 L 21 9 L 14 9 z M 16 11 L 19 11 L 19 13 L 16 13 L 16 11 z M 14 17 L 14 23 L 21 23 L 21 17 L 14 17 z M 16 19 L 19 19 L 19 21 L 16 21 L 16 19 z "
     />
  <path
     style="opacity:0.35;fill:#555753"
     d="M 5,1 V 3 5 H 7 V 3 h 5 V 1 Z m 0,18 v 4 h 2 5 V 21 H 7 v -2 z"
     />
</svg>
